X: 11071
M: 3/8
L: 1/16
Q: "Allegretto"
K: G
V: 1 staves=2
[|\
[g6-B6] | g2 {a}gfga & !f!B2z2!p!z2 |\
[b2G2][g2B2][d2D2] | {ed^c}[d2G2][e2B2][B2D2] |\
(d6 & A2c2D2 | c2) {b}a(^gab) & A2c2D2 |\
c'2a2f2 & A2c2D2 | {ed^c}[d2B2][e2c2][=c2A2] |
d4c2 & B2D2A2 | B2 {a}gfga & G4 !f!z2 |\
[b2c2][g2B2][d2D2]  | {ed^c}[d2G2][e2B2][B2D2] |\
(d6 & A2c2D2 | c2) {b}a(^gab) & A2c2D2 |\
c'2a2f2 & A2c2D2 | {ed^c}[d2B2][e2c2][=c2A2] |\
[B2G2][dB][ec][dB][cA] |
[B2G2].[B2G2].!p![A2F2] | [c2E2]"^>"[B4D4] |\
.[G2B,2].[B2G2].[c2A2] | [d2B2]"^>"[e3c3][dB] |\
[A2F2].[A2F2].[^G2^E2] | [B2G2]"^>"[A4F4] |\
.[A2F2].[B2G2].[c2A2] | [d2B2]"^>"[e3c3][dB] |\
[B2G2][B2G2]!f![A2F2] |
[c2E2]"^>"[B4D4] | [G2B,2][B2G2][c2A2] |\
[d2B2]"^>"[e3c3][dB] | [A2F2][A2F2][^G2^E2] |\
[B2G2]"^>"[A4F4] | [A2F2][B2G2][c2A2] |\
[d2B2]"^>"[e3c3][dB] | [G2G2][g2B2][g2B2] | [g6B6] H|]
V: 3 clef=bass middle=d
[|\


